!!!OTL: Reiters Trostlied
!!!ARE: Europa, Mitteleuropa, Deutschland
!!!SCT: A0431A
!!!YEM: Copyright 1995, estate of Helmut Schaffrath.
**kern
*ICvox
*Ivox
!! Mixed meters:  4/2; 6/2
*M4/2
*k[f#]
*G:
{2g
2g
2g
=1
2dd
2dd
4ffn
4ee
4dd
4cc#
=2
1dd
2r}
{2dd
=3
2dd
2dd
2ffn
2ffn
=4
2dd
4cc
4b-
2cc
2cc
=5
1b-}
{1b-
=6
2dd
2ffn
2ee
2dd
=7
*M6/2
1.cc
4b-
4a
4g
4fn
2g
=8
*M4/2
0fn
=9
2r}
{2fn
2g
2a
=10
2b-
2dd
2cc
2b-
=11
2ee-
2dd
1cc
=12
0b-}
=13
{1b-
2dd
2dd
=14
*M6/2
1ffn
2ee-
1dd
4cc
4b-
=15
*M4/2
4cc
4b-
4a
4g
1a
=16
0g
=17
2r}
==
!!!AGN: Romanze, Ballade, Lied, Kriegslied
!! Forster V 1556 No. 49.
!!!ONB: ESAC (Essen Associative Code) Database: ALTDEU
!!!AMT: irregular
!!!AIN: vox
!!!EED: Helmut Schaffrath
!!!EEV: 1.0
*-
